icons/svg/32x32/bookmark add alt1/filled.svg

<svg xmlns="http://www.w3.org/2000/svg" width="32" height="32" viewBox="0 0 32 32">
  <path fill-rule="evenodd" d="M19.3008,19 L15.9998,17.265 L12.6988,19 L13.3288,15.324 L10.6578,12.721 L14.3498,12.185 L15.9998,8.84 L17.6508,12.185 L21.3418,12.721 L18.6708,15.324 L19.3008,19 Z M20.9998,2 L10.9998,2 C9.3428,2 7.9998,3.343 7.9998,5 L7.9998,30 L15.9998,25 L23.9998,30 L23.9998,5 C23.9998,3.343 22.6568,2 20.9998,2 L20.9998,2 Z"/>
</svg>

<svg width="32" height="32" fill="none" xmlns="http://www.w3.org/2000/svg">
  <path fill-rule="evenodd" clip-rule="evenodd" d="M19.3 19L16 17.265 12.699 19l.63-3.676-2.671-2.603 3.692-.536L16 8.84l1.65 3.345 3.692.536-2.671 2.603L19.3 19zM21 2H11a3 3 0 00-3 3v25l8-5 8 5V5a3 3 0 00-3-3z" fill="#000"/>
</svg>
